lib/healthicons/icons/solid/typography/Y.svg

<svg fill="none" height="48" viewBox="0 0 48 48" width="48" xmlns="http://www.w3.org/2000/svg"><path clip-rule="evenodd" d="m35.2804 10.4636c.8486.7071.9632 1.9683.2561 2.8168l-9.5364 11.4438v11.2759c0 1.1045-.8955 2-2 2-1.1046 0-2-.8955-2-2v-11.2759l-9.5365-11.4438c-.7071-.8485-.5925-2.1097.2561-2.8168.8485-.70712 2.1097-.59247 2.8168.2561l8.4636 10.1563 8.4635-10.1563c.7071-.84857 1.9683-.96322 2.8168-.2561z" fill="#333" fill-rule="evenodd"/></svg>

<svg width="48" height="48" viewBox="0 0 48 48" fill="none" xmlns="http://www.w3.org/2000/svg">
<path fill-rule="evenodd" clip-rule="evenodd" d="M35.2804 10.4636C36.129 11.1707 36.2436 12.4319 35.5365 13.2804L26.0001 24.7242V36.0001C26.0001 37.1046 25.1046 38.0001 24.0001 38.0001C22.8955 38.0001 22.0001 37.1046 22.0001 36.0001V24.7242L12.4636 13.2804C11.7565 12.4319 11.8711 11.1707 12.7197 10.4636C13.5682 9.75648 14.8294 9.87113 15.5365 10.7197L24.0001 20.876L32.4636 10.7197C33.1707 9.87113 34.4319 9.75648 35.2804 10.4636Z" fill="#333333"/>
</svg>
